X: 1647
T: Sabâ Taksim
C: Tanburî Cemil Bey
O: Turkey
F: http://compmusic.upf.edu/node/140
N: saba--taksim--serbest----tanburi_cemil_bey
N: makam= saba
N: form= taksim
N: usul= serbest = 0/1
M: 0/1
L: 1/16
K: C _2/4B _3/4d  
Q: 1/4=72
%%MIDI tuningsystem comma53
A3 _1/4B c/ B/ c _7/8d2 B c c/ B/ c c4  | \
w:   | 
z4 _7/8d c _1/4B2 A B A4 A B  | 
w:   | 
A4 _1/4B c2 _7/8d e c B A B2 A d3 c2 d2 c2 B A B c2 d2 c2 d2 e2 d2 e2 e d4 c4 B A B d c B c d e f3/2 e/ d c d  | 
w:   | 
_7/8d e d d d c _1/4B c B12 d d d c c B c8 d c d c d e e d d3 c c d3 c4 B A B c2 d2 c2 d2 c2 e2 d d c2 c2 d4 c4 B4 c4 d d d B2  | 
w:   | 
A/ G/ A2 A4 c4 _1/4B4 _7/8d4 c4 e4 d3 c f3/2 e/ d c B c d/ e3/2 d d d c c2 d2 B2 c2 d2 c B c4 c8 c8 c4 z4 G4 A G A4 B A B4 c4 d4 c2 B2 c2 B/ A/ B f2 e d e2 d c c B c2 c2 c8 z4 z4 z4 z4 c d e f g a a  | 
w:   | 
g f e f f3 e f4 z2 e f  | _1/4a4 g2 g/ z/ f/ z/ f/ z/ e/ z/ e/ z/ f/ z/ f/ z/ e/ z/ e f  | 
w:   |   | 
g g f e f e a2 g a2 f2 g2 e2 f2 e _7/8d3 e4 f f e d2  | \
w:   | 
c _1/4B c2 z4 z4 g3/2 f/ e a4 a g4 g/ z/ f4 f/ e3/2 e4 f e f g f2 g4 f e _7/8d2 e2 f g f/ e/ d c/ B/ c4 z4  | 
w:   | 
c _7/8d e f a g2 z2 f/ e/ d/ e/ f2 z2 e  | \
w:   | 
f g g f e _7/8d e f f/ e/ d c/ _1/4B/ c2 d4 e4 f4 d4 c4 e2 d c c d2 d c c B/ A/ B2 B2  | 
w:   | 
G2 c4 G4 A2 A _1/4B c/ B/ B4 c _7/8d c2 d2 d c c B B c c  | \
w:   | 
_7/8d c3/2 _1/4B/ A B ^F E F G A B c d B c B  | 
w:   | 
A A A/ G/ A2 _1/4B2 c/ B/ B4 e _7/8d c/ B/ c2 c4 c8 c8 c8 c4 d2 d2 c2 d2 c2 d2 e2 f3/2 e/ d c d c d e d d d d c d d4 d c d e4 d d d d c c d4 c4 B/ A/ B2 z2 z2 c3/2 B/ c/ e3/2 d d d c d6 z2 c d c  | 
w:   | 
_7/8d c d e f g g f e d c2 c _1/4B A3/2 G/  | \
w:   | 
A4 z4 c3/2 _1/4B/ A c B/ c/ B/ A/ B4 B4 B4 B4 B4 B4 B4 A B c _7/8d d c  | 
w:   | 
c _1/4B B A A G z2 B2 _1/4d4 d c  | \
w:   | 
_1/4d c d e e d d c c _1/4B B A A G A4 B4 _7/8d c4 d d c B A  | 
w:   | 
_1/4B c2 B B B B A A G A2 A4  | A8 A8  | \
w:   |   | 
A8 g g ^f g a8 g2 f g a2 _1/4b a g2 f2  | 
w:   | 
e2 ^f2 a2 g2 f2 e a g2 f2  | e2 e _7/8d d c c _1/4B B A A G A B c d  | 
w:   |   | 
e e/ _7/8d/ e2 c4 _1/4B A B3 A d2  | \
w:   | 
c _1/4B A B c c B B3/2 A/ G A G/ c3/2 B/ A/ B A8 A2 z2 c2 _B4 G/ G/ ^F/ G/ A/ B/ A/ c/ B/ A/ B A6 z6 z4 |
w:   | 


